X: 313
M: 6/8
L: 1/8
K: Ephr
e2c d2B | c2A B2A | G2E EFE | (c3 B2)A |
edc dcB | cBA BAB | G2E EFE | (c3 B2)A |]


